icons/x-light.svg

<svg width="256" height="256" viewBox="0 0 256 256" fill="none" xmlns="http://www.w3.org/2000/svg">
<path d="M196 0H60C26.8629 0 0 26.8629 0 60V196C0 229.137 26.8629 256 60 256H196C229.137 256 256 229.137 256 196V60C256 26.8629 229.137 0 196 0Z" fill="#FCFCFC"/>
<path d="M183.113 42H212.237L148.292 114.989L223 214H164.373L118.472 153.832L65.9224 214H36.7987L104.543 135.934L33 42H93.0833L134.553 96.9638L183.113 42ZM172.92 196.863H189.065L84.5995 58.5018H67.2519L172.92 196.863Z" fill="#030303"/>
</svg>

<svg xmlns="http://www.w3.org/2000/svg" width="256" height="256" fill="none"><path fill="#FCFCFC" d="M196 0H60C26.863 0 0 26.863 0 60v136c0 33.137 26.863 60 60 60h136c33.137 0 60-26.863 60-60V60c0-33.137-26.863-60-60-60"/><path fill="#030303" d="M183.113 42h29.124l-63.945 72.989L223 214h-58.627l-45.901-60.168L65.922 214H36.8l67.744-78.066L33 42h60.083l41.47 54.964zM172.92 196.863h16.145L84.6 58.502H67.252z"/></svg>
